X: 29859
T: O'Flynn's
R: jig
M: 6/8
K: Dmajor
|:c|Ac/A/A g3|eaa efg|f3 ded|cAG EFG|
A3 g3|eaa efg|fed cAG|ABc d2:|
|:e|gf/e/d edc|ded cAG|Ac/A/A D3|fed cde|
fed edc|ded Bc/d/e|fed cAG|Adc d2:|

